X:1
T:Title
%%score ( 1 2 ) ( 3 4 )
L:1/8
Q:1/4=93
M:6/8
K:Bb
V:1 treble nm="Grand Piano, Soprano"
V:2 treble 
V:3 bass nm="Choir Pad, Bolivia, CMD"
V:4 bass 
V:1
 [DF][DF][EG] [DF] [Fd]2 | [Ec] [DB]2 [B,D] [DF]2 | [DB] [EA]2 [Ec] [EG]2 | z B2- B z z | %4
w: Generated~by~NoteWorthy~Composer * * * *||||
 [DF][DF][EG] [DF] [Fd]2 | [Ec] [DB]2 [B,D] [DF]2 | z .A2 z .c2 | .G3 z3 | %8
w: ||||
 [EF] [EA]2 [DB][Ec][DB] | [CA] [DB]2 [Ec] [Fd]2 | [Fc] [Ac]2 [FA][=EB][FA] | G F2- F2- F/ z/ | %12
w: ||||
 [EF][DF][EG] [DF] [Fd]2 | [Ec] [DB]2 [B,D] [DF]2 | [DB] [CA]2 [DB] [Fd]2 | [Ec] [DB]2- [DB]3- | %16
w: ||||
 [DB]3 z3 |] %17
w: |
V:2
 x6 | x6 | x6 | [EA] D2- D-[DF-]>F | x6 | x6 | [DB]C-[CG] [CA]=E-[EB] | %7
 C/B,/ [CA]2- [CA]2- [CA]/ z/ | x6 | x6 | x6 | C/B,/A,C D E2 | x6 | x6 | x6 | x6 | x6 |] %17
V:3
 [B,,B,] [B,,B,]2 [B,,B,] [B,,B,]2 | [B,,B,] [B,,F,]2 [B,,F,] [B,,B,]2 | %2
 [B,,F,] F,2 [F,A,] [F,C]2 | F, F,2- F, B,2 | [B,,B,] [B,,B,]2 [B,,B,] [B,,B,]2 | %5
 [B,,B,] [B,,F,]2 [B,,F,] [B,,B,]2 | [B,,F,]F,=E, [C,F,] [C,G,]2 | [C,=E,] F,2- F,2- F,/ z/ | %8
 [F,A,] [F,C]2 [F,B,]A,B, | F, [B,,F,]2 [B,,B,] [B,,B,]2 | z3 z .G,2 | [C,=E,]F,A, B, C2 | %12
 [F,A,] [B,,B,]2 [B,,B,] [B,,B,]2 | [B,,F,] [B,,F,]2 [B,,F,] [B,,B,]2 | [B,,F,] F,2 F, [F,B,]2 | %15
 F, [B,,F,]2- [B,,F,]3- | [B,,F,]3 z3 |] %17
V:4
 x6 | x6 | x6 | z B,,2- B,,2- B,,/ z/ | x6 | x6 | z C,2 z3 | x6 | z3 z F,2 | x6 | %10
 [B,,B,] [D,F,]2 [C,F,]C,-[C,F,] | x6 | x6 | x6 | x6 | x6 | x6 |] %17

